icons/svgs/temperature-half-outline.svg

<svg width="24" height="24" viewBox="0 0 24 24" fill="none" xmlns="http://www.w3.org/2000/svg">
<path d="M12.5 3.875C11.0938 3.875 10 5.00781 10 6.375V12.7031C10 13.2891 9.76562 13.7578 9.49219 14.1484C9.02344 14.7734 8.75 15.5547 8.75 16.375C8.75 18.4453 10.4297 20.125 12.5 20.125C14.5703 20.125 16.25 18.4453 16.25 16.375C16.25 15.5547 15.9375 14.7734 15.4688 14.1484C15.1953 13.7578 15 13.2891 15 12.7031V6.375C15 5.00781 13.8672 3.875 12.5 3.875ZM8.125 6.375C8.125 3.99219 10.0781 2 12.5 2C14.8828 2 16.875 3.99219 16.875 6.375V12.7031C16.875 12.7812 16.875 12.8984 16.9922 13.0156C17.6953 13.9531 18.125 15.125 18.125 16.4141C18.125 19.5 15.5859 22.0391 12.5 22.0391C9.375 22.0391 6.875 19.5 6.875 16.375C6.875 15.125 7.26562 13.9531 7.96875 13.0156C8.08594 12.8984 8.125 12.7812 8.125 12.7031V6.375ZM14.375 16.375C14.375 17.4297 13.5156 18.25 12.5 18.25C11.4453 18.25 10.625 17.4297 10.625 16.375C10.625 15.5938 11.1328 14.8906 11.875 14.6172V9.8125C11.875 9.5 12.1484 9.1875 12.5 9.1875C12.8125 9.1875 13.125 9.5 13.125 9.8125V14.6172C13.8281 14.8906 14.375 15.5938 14.375 16.375Z" fill="black"/>
</svg>

<svg xmlns="http://www.w3.org/2000/svg" width="24" height="24" fill="currentColor" class="icon-temperature-half-outline" viewBox="0 0 24 24">
  <mask id="a" width="13" height="21" x="6" y="2" maskUnits="userSpaceOnUse" style="mask-type:alpha">
    <path d="M12.5 3.875a2.49 2.49 0 0 0-2.5 2.5v6.328c0 .586-.234 1.055-.508 1.445a3.72 3.72 0 0 0-.742 2.227 3.751 3.751 0 0 0 7.5 0c0-.82-.312-1.602-.781-2.227A2.46 2.46 0 0 1 15 12.703V6.375c0-1.367-1.133-2.5-2.5-2.5m-4.375 2.5C8.125 3.992 10.078 2 12.5 2c2.383 0 4.375 1.992 4.375 4.375v6.328c0 .078 0 .195.117.313a5.64 5.64 0 0 1 1.133 3.398c0 3.086-2.54 5.625-5.625 5.625-3.125 0-5.625-2.539-5.625-5.664 0-1.25.39-2.422 1.094-3.36.117-.117.156-.234.156-.312zm6.25 10c0 1.055-.86 1.875-1.875 1.875a1.85 1.85 0 0 1-1.875-1.875c0-.781.508-1.484 1.25-1.758V9.812c0-.312.273-.624.625-.624.313 0 .625.312.625.624v4.805c.703.274 1.25.977 1.25 1.758"/>
  </mask>
  <g mask="url(#a)">
    <path d="M0 0h24v24H0z"/>
  </g>
</svg>
